X:1
T:Title
%%score ( 1 2 3 ) { ( 4 7 ) | ( 5 6 ) }
L:1/8
Q:1/4=110
M:4/4
K:G
V:1 treble nm="Grand Piano, Staff 1"
V:2 treble 
V:3 treble 
V:4 bass nm="Choir Pad, Jesu,Meines Lebens Leben"
V:7 bass 
V:5 bass 
V:6 bass 
V:1
 [DG]3 [DG] [DF]2 D2 | [CE]2 [CF]2 [CG]2 [B,G]2 | [DB]2 [Dd]2 [Ec]2 [DB]2 | [EA]3 G [FA]4 | %4
w: By~Darmstadt~Gesangbuch,~1687 * * *||||
 [DG]3 [DG] [DF]2 D2 | [CE]2 [CF]2 [CG]2 [B,G]2 | [DB]2 [Dd]2 [Ec]2 [DB]2 | [EA]3 G [FA]4 | %8
w: ||||
 B3 c [Fd]2 [DG]2 | [DF]2 [^CE]2 [DF]4 | B4 z4 | [B,G]2 [^CE]2 [DF]4 | [B,G]2 [DG]2 [EA]2 [DA]2 | %13
w: |||||
 [DB]3 [=FB] [Ec]4 | [DB]2 [DA]2 E-[EA] [GB]2 | A3 G [B,G]4- | [B,G]4 z4 |] %17
w: ||||
V:2
 x8 | x8 | x8 | x8 | x8 | x8 | x8 | x8 | D2 G2 z4 | x8 | D2 z B [DA]2 [DA]2 | x8 | x8 | x8 | %14
 z4 .G2 z2 | E2 D2 z4 | x8 |] %17
V:3
 x8 | x8 | x8 | x8 | x8 | x8 | x8 | x8 | x8 | x8 | z2 D2 z4 | x8 | x8 | x8 | x8 | x8 | x8 |] %17
V:4
 .B,4 A,2 F,2 | G,2 A,2 D,2 D,2 | G,2 A,2 G,2 B,2 | C2 B,2 D4 | .B,4 A,2 F,2 | G,2 A,2 D,2 D,2 | %6
 G,2 A,2 G,2 B,2 | C2 B,2 D4 | B,2 G,2 A,2 B,2 | A,2 A,2 A,4 | G,2 G,2 G,2 F,2 | G,2 A,2 A,4 | %12
 G,2 G,2 G,2 F,2 | G,3 D C4 | G,2 A,2 B,A, z D, | G,2 F,2 G,4- | G,4 z4 |] %17
V:5
 G,,2 z B, D,2 D,2 | C,2 A,,2 G,,2 G,,2 | z2 F,2 E,2 G,2 | C,2 E,2 D,4 | G,,2 z B, D,2 D,2 | %5
 C,2 A,,2 G,,2 G,,2 | z2 F,2 E,2 G,2 | C,2 E,2 D,4 | G,2 E,2 D,2 B,,2 | D,2 A,,2 D,4 | %10
 G,,2 B,,2 D,2 D,2 | E,2 A,,2 D,4 | G,,2 B,,2 C,2 D,2 | z2 z G, C,4 | z2 F,2 .E,4 | C,2 D,2 G,,4- | %16
 G,,4 z4 |] %17
V:6
 z2 B,,2 z4 | x8 | x8 | x8 | z2 B,,2 z4 | x8 | x8 | x8 | x8 | x8 | x8 | x8 | x8 | x8 | x8 | x8 | %16
 x8 |] %17
V:7
 x8 | x8 | x8 | x8 | x8 | x8 | x8 | x8 | x8 | x8 | x8 | x8 | x8 | x8 | z4 z2 G,2 | x8 | x8 |] %17

